X: 10682
T: Down The Hall And Under The Stairs
R: reel
M: 4/4
K: Gminor
DGGF GABc|dedc BcBA|FGGF GABc|dcBc A2 BA|
FGGF GABc|dedc BcBA|dedc BcBA|BAGF DG G2:|
gd d2 gaba|fc c2 fgaf|gd d2 gaba|fdca g2 ba|
gd d2 gaba|fc c2 fgaf|gd d2 gaba|1 fdcA G2 ba:|2 fdcA G2 GF||

